X:151
T:Polonise ur E Wigells notbok
R:Polska
O:Wisingsborg, Visingsö, Småland
N:1841
B:Smus M43
B:E Wigells notbok
B:Småländsk Musiktradition
N:Småländsk Musiktradition, I:151
M:3/4
L:1/8
K:C
GA/B/|:c2 G4|G2 c e3|(ef/e/) (de/d/) (cd/c/)|(Bc/B/) AB/A/ GA/B/|
c2 G4|G2 c e3|(ef/e/) (de/d/) (cd/c/)|1 B>d c2 GA/B/:|2B>d c2 zc/e/||
|:g2 e2 c2|c>f a4|a>g ((3ece) g>f|(dB/d/) (fd/f/) (ec/e/)|
g2 e2 c2|c>f a4|a>g ((3ece) g>f|1 d>B c2 zc/e/:|2d>B c2 z2||

